Origami/64x64/apps/xiphos.svg

<svg width="64" height="64" version="1.1" viewBox="0 0 64 64" xmlns="http://www.w3.org/2000/svg">
 <path d="m10 56v2c0 1.662 1.338 3 3 3h38c1.662 0 3-1.338 3-3v-2c0 1.662-1.338 3-3 3h-38c-1.662 0-3-1.338-3-3z" style="opacity:.2"/>
 <path d="m13 4c-1.662 0-3 1.338-3 3v50c0 1.662 1.338 3 3 3h38c1.662 0 3-1.338 3-3v-50c0-1.662-1.338-3-3-3h-38z" style="fill:#961a1a"/>
 <path d="m13 4c-1.662 0-3 1.338-3 3v50c0 1.662 1.338 3 3 3h5v-56z" style="opacity:.2"/>
 <path d="m13 4c-1.662 0-3 1.338-3 3v1c0-1.662 1.338-3 3-3h38c1.662 0 3 1.338 3 3v-1c0-1.662-1.338-3-3-3h-38z" style="fill:#ffffff;opacity:.1"/>
 <path d="m32 13v10h-10v8h10v22h8v-22h10v-8h-10v-10z" style="opacity:.2"/>
 <rect x="32" y="12" width="8" height="40" style="fill:#ffffff"/>
 <rect transform="rotate(90)" x="22" y="-50" width="8" height="28" style="fill:#ffffff"/>
</svg>

<svg xmlns="http://www.w3.org/2000/svg" width="64" height="64" version="1.1" viewBox="0 0 64 64">
 <g>
  <path style="opacity:0.2" d="m 10,56 0,2 c 0,1.662 1.338,3 3,3 l 38,0 c 1.662,0 3,-1.338 3,-3 l 0,-2 c 0,1.662 -1.338,3 -3,3 l -38,0 c -1.662,0 -3,-1.338 -3,-3 z"/>
  <path style="fill:#961a1a" d="m 13,4 c -1.662,0 -3,1.338 -3,3 l 0,50 c 0,1.662 1.338,3 3,3 l 38,0 c 1.662,0 3,-1.338 3,-3 L 54,7 C 54,5.338 52.662,4 51,4 L 13,4 Z"/>
  <path style="opacity:0.2" d="m 13,4 c -1.662,0 -3,1.338 -3,3 l 0,50 c 0,1.662 1.338,3 3,3 l 5,0 0,-56 z"/>
  <path style="opacity:0.1;fill:#ffffff" d="M 13 4 C 11.338 4 10 5.338 10 7 L 10 8 C 10 6.338 11.338 5 13 5 L 51 5 C 52.662 5 54 6.338 54 8 L 54 7 C 54 5.338 52.662 4 51 4 L 13 4 z"/>
  <path style="opacity:0.2" d="M 32,13 V 23 H 22 v 8 h 10 v 22 h 8 V 31 H 50 V 23 H 40 V 13 Z"/>
  <rect style="fill:#ffffff" width="8" height="40" x="32" y="12"/>
  <rect style="fill:#ffffff" width="8" height="28" x="22" y="-50" transform="rotate(90)"/>
 </g>
</svg>
